X:4
$SmallLMargin
$SmallRMargin
T: The Spotted Dog (©2001 or earlier John McEvoy)
M: 6/8
L: 1/8
R: jig
K: A
"A"EAA ABc|"D"BAF "A"AFE|"Bm"FBB Bce|"D"faf "E"ecA|
"A"EAA ABc|"D"BAF Ace|"D"f2a"A"e2a|"E"ABc "A"B2A:|
|:"A"cee ece|"D"fec "A"ecA|"A"eaf "F#m"ecA|"Bm"EFA "E"B2A|
"A"cee ece|"D"fec "A"e2 a|"D"f2a "A"e2a|"E"ABc "A"B2A:|
%%text Ending: Tack on an A-chord after last measure.
%%textfont Times-Roman 6.0
%%text 

#include "LeftHeader.h"
%%text Set 100, Neffa '09 Celtic Set
%
% Twilight In Portroe (A) / Barrowburn (D) / Cooley's Reel (Edor) / The Road To Errogie (A)
%
%%scale .8
$SmallLMargin
$SmallRMargin
